!!!OTL: Der Achte (Band 1), S. 268
!!!id: P0872
**kern
*clefG2
*k[f#c#]
*D:
{8f#
=1
4a
8g
=2
4b
8g
=3
4g
8f#
=4
8a
8.a}
=5
{16f#
=6
8.f#
16f#
8e
=7
8g
8g
8c#
=8
8e
8d
8d
=9
8d
8d}
=10
{8f#
=11
4a
8g
=12
4b
8g
=13
4g
8f#
=14
8a
8.a}
=15
{16f#
=16
8.f#
16f#
8e
=17
8g
8g
8c#
=18
8e
8d
8d
=19
8d
8d}
=20
{16f#
16f#
=21
8.d
16d
8d
=22
4b
16g
16g
=23
8f#
8f#
8f#
=24
4a}
=25
{16f#
16f#
=26
8f#
8e
8e
=27
8.g
16e
8e
=28
8d
8f#
8e
=29
4e}
==
*-
!!!minrhy: 16
!!!meters: 3/8 ]  ZZ[6
!!!cut: Der Achte (Band 1), S. 268
!!!reg: Lothringen
!!!trd: PINCK, Louis: Verklingende Weisen, Bd 1, Metz 1928
!!!rhy1: X_  X__X_  X__X_  X__X_  X_X_.
!!!rhy2: X  X_.XX_  X_X_X_  X_X_X_  X_X_
!!!key: P0872  16  D 3/8 ]  ZZ[6
!!!mod: HEPTATONIK IONISCH]  AMBITUS[7b
!!!kad: 515152
!!!akz: 5645_3421_5645_3421_1635_3412_
!!!fot: 'a__b__a__b__c__d__
!!!for: 'a__b__a__b__c__d__
!!!fok: '~a_\__~a_\__Wa_\__
!! PHRAS[AUFTAKTIG]
!!!fkt: Soldatenlied
!! LOTH VKL
!! PR[33] 2K[0] 2G[7] 3K[7] 3G[7] 4A[3] 4Ü[0] 5A[3] 6K[0] 6G[0]
!! 7K[0] 7G[0] 8A[0] MEHR[0] SI[27] ABS[30] SR[7] SP[20]
!! ST[10] 2k[7] 2g[27] 3k[0] 3g[0] 4d[3] 4ü[0] 5d[3] 6k[0] 6g[0]
!! 7k[0] 7g[0] 8d[0] mehr[0] si[40] dm[-13] sr[33] sp[7]
!! 1F[13] 2F[63] 3F[13] 4F[3] LF[0] 2P[6] 3P[3] 4P[0] TRI[0] DF[6] AB[32]
!! TF[0] U3K[0] U3[0] U4[0] U4Ü[0] U5[0] U6K[0] U6[0] U7K[0] U7[0]
!! N1[16] N2K[0] N2[16] N3K[0] N3[19] N4[13] N4Ü[0] N5[23] N6K[0] N6[13]
!!!n7k: 0] N7[0] O1[0] O2K[0] O2[0] O3K[0] O3[0] HÖ[0
